fs/eyedropper_24_regular.svg

<svg viewBox="0 0 24 24" fill="none" xmlns="http://www.w3.org/2000/svg" height="1em" width="1em">
  <path d="M21.0303 2.96997C19.6329 1.57251 17.3671 1.57251 15.9697 2.96997L14 4.93966L13.9874 4.9271C13.304 4.24368 12.196 4.24368 11.5125 4.92709L10.9268 5.51288C10.2433 6.1963 10.2433 7.30434 10.9268 7.98776L10.9394 8.00039L4.15914 14.7806C3.73719 15.2026 3.50013 15.7749 3.50013 16.3716V17.0591L2.21981 19.4063C1.38379 20.939 3.06141 22.6167 4.59412 21.7806L6.94138 20.5003H7.62881C8.22555 20.5003 8.79785 20.2633 9.2198 19.8413L16.0001 13.0611L16.0125 13.0735C16.696 13.757 17.804 13.757 18.4874 13.0735L19.0732 12.4878C19.7566 11.8043 19.7566 10.6963 19.0732 10.0129L19.0606 10.0003L21.0303 8.03063C22.4278 6.63317 22.4278 4.36744 21.0303 2.96997ZM17.0303 4.03063C17.842 3.21896 19.158 3.21896 19.9697 4.03063C20.7813 4.84231 20.7813 6.1583 19.9697 6.96997L17.4697 9.46999C17.1768 9.76288 17.1768 10.2378 17.4697 10.5306L18.0125 11.0735C18.1102 11.1712 18.1102 11.3295 18.0125 11.4271L17.4268 12.0129C17.3291 12.1105 17.1708 12.1105 17.0732 12.0129L11.9874 6.9271C11.8898 6.82947 11.8898 6.67117 11.9874 6.57354L12.5732 5.98775C12.6708 5.89012 12.8291 5.89012 12.9268 5.98776L13.4697 6.53065C13.7625 6.82354 14.2374 6.82354 14.5303 6.53065L17.0303 4.03063ZM14.9394 12.0004L8.15914 18.7806C8.01849 18.9213 7.82773 19.0003 7.62881 19.0003H6.75013C6.62465 19.0003 6.50116 19.0318 6.391 19.0919L3.87584 20.4638C3.80671 20.5015 3.75536 20.5032 3.717 20.4964C3.67227 20.4885 3.62232 20.4641 3.57935 20.4211C3.53638 20.3781 3.51196 20.3282 3.50405 20.2834C3.49726 20.2451 3.49895 20.1937 3.53665 20.1246L4.90856 17.6095C4.96865 17.4993 5.00014 17.3758 5.00014 17.2503V16.3716C5.00014 16.1727 5.07915 15.982 5.21981 15.8413L12.0001 9.06105L14.9394 12.0004Z" fill="#212121"/>
</svg>

<svg viewBox="0 0 24 24" fill="none" xmlns="http://www.w3.org/2000/svg" height="1em" width="1em">
  <path d="M21.03 2.97a3.578 3.578 0 0 0-5.06 0L14 4.94l-.013-.013a1.75 1.75 0 0 0-2.475 0l-.585.586a1.75 1.75 0 0 0 0 2.475l.012.012-6.78 6.78a2.25 2.25 0 0 0-.659 1.592v.687l-1.28 2.347c-.836 1.533.841 3.21 2.374 2.375l2.347-1.28h.688a2.25 2.25 0 0 0 1.59-.66L16 13.061l.012.012a1.75 1.75 0 0 0 2.475 0l.586-.585a1.75 1.75 0 0 0 0-2.475L19.061 10l1.97-1.97a3.578 3.578 0 0 0 0-5.06Zm-4 1.06a2.079 2.079 0 0 1 2.94 2.94l-2.5 2.5a.75.75 0 0 0 0 1.06l.543.543a.25.25 0 0 1 0 .354l-.586.586a.25.25 0 0 1-.354 0l-5.086-5.086a.25.25 0 0 1 0-.353l.586-.586a.25.25 0 0 1 .354 0l.543.543a.75.75 0 0 0 1.06 0l2.5-2.5ZM14.94 12l-6.78 6.78a.75.75 0 0 1-.531.22H6.75a.75.75 0 0 0-.359.092l-2.515 1.372a.234.234 0 0 1-.159.032.264.264 0 0 1-.138-.075.264.264 0 0 1-.075-.138.234.234 0 0 1 .033-.158l1.372-2.515A.75.75 0 0 0 5 17.25v-.878a.75.75 0 0 1 .22-.53L12 9.06 14.94 12Z" fill="#212121"/>
</svg>
